_project/icons/icon.svg

<svg width="30" height="30" xmlns="http://www.w3.org/2000/svg" shape-rendering="crispEdges">
	<rect fill="#ee0" x="2" y="2" width="26" height="26" />
	<path fill="#eee" d="M2 2V1h26v1zm26 0h1v25h-1zm0 25h-1v1h1zm-1 1v1H3v-1zM3 28v-1H2v1zm-1-1H1V2h1z" />
	<path fill="#e80" d="M20 2v1h2v1h1V3h4V2zm7 7h1v1h-1zm-1 7h1v2h-1zm-1 3h1v1h-1zm-1 2h1v2h-1zm-1 3h1v1h-1zm-1 4v-2h1v1h-2v1z" />
	<path fill="#22a" d="M2 3h1V2h17v1h2v1h2V3h4v6h-1v7h-1v3h-1v2h-1v3h-1v2h-1v1h-1v1H3v-1H2z"/>
	<path fill="#24c" d="M2 17h1v1h1v1H3v2H2zM2 7h1V5h1v1H2zm2 1h1V7H4zm4-5V2H7v1zm2 3H9V5h1zm-2 4h1V8h1v1H8zm4-1h2v1h-1V8h-1zm2 2h1v1h-1zm1 2h1v1h-1zm1 2h1v2h1v-1h-2zm3 2h1v-2h1v1h-2zm2-3h1v-1h-1zm2-2h-1v-1h1zm-1-5h1v2h-1V6h-2V4h-1v1h2v2zm-4-3h-1V3h1zm-2-1h-1V2h1zm8 1h1V3h-1zm3 0h1V3h-1zm0 5h1V8h-1z" />
	<path fill="#44e" d="M5 18v-1h2v-6h1V9h1V8h4v1h1v2h1v2h1v2h1v1h1v1h1v-1h1v-1h1v-2h1v-2h1V9h-1V7h-1V6h-1V5h-1V4h-2V3h-2V2H8v2h1v1h1v2H8v1H7v1H5V8H4v10z" />
	<path fill="#66e" d="M4 14v-3h2v-1H5v2h1v1H5v1zm9-6v1h1v1h1v2h1v2h1v1h1v1h1v-4h-1V9h-1V7h-1V6h-1V5h-3v1h-1v1h-1v1zm-6 3h1v1H7zm0 5h1v1H7z" />
	<path fill="#ea8" d="M5 4v3h1v1h2V7h1V6H8V5H7V4zm13 17v1h1v1h2v1h1v2h-1v1h-2v1H9v-1H7v-1H5v-1H4v-1H3v-5h1v-1h1v-1h3v1h1v1H8v1h1v1h2v1h5v-1z"/>
	<path fill="#a64" d="M5 7h1v2h1V8H5zm5 0V6H8V4H7v1h2v2zM9 21H7v2h2v1H8v-4h1zm-4-4h2v1H4v1h1zm-1 3H3v3h1zm0 4h1v2h1v-1H4zm3 2h1v1H7m2 0h2v1H9zm9-4h3v1h1v2h-1v1h-4v1h2v-2h1v-2h-1v-2h-1z" />
	<path fill="#800" d="M6 20h2v1H7v1H6zm-3-1h1v1H3zm0 4h1v1H3zm1 2h1v2h4v1H7v-2H4zm15 2h3v-3h-1v-1h2v-1h1v2h-1v2h-2v2h-2zM5 3h2v1H5z" />
	<path fill="#000" d="M3 28v-1h1v-1h1v1h2v1z" />
	<path fill="#eee" d="M5 11h1v1H5zm4 8v-1H8v-2H7v-4h1v-2h1V9h3v1h1v1h1v2h1v2h1v2h1v1h3v-1h1v-2h1v-2h1v-1h2v7h-1v3h-3v-1h-5v1h-5v-1H9v-1H8v-1zm-4-1h3v1H5zm-1 1h1v1H4z" />
	<path fill="#000" d="M10 14v3h1v2h1v-1h1v-5h-2v-1h1v3h-1v-1zm9 9v-1h-1v-1h1v-3h1v1h1v1h-1v1h1v1h3v-1h-1v2zm2-7h1v-1h-1z" />
	<path fill="#aaa" d="M2 2v1h1V2zM1 27h1v2h1v-1H1zm26 2h1v-2h1v1h-2zm1-27h-1v1h1zM7 12h1v-1h1v-1h1V9h1v1h1v1h2v2h1v2h1v2h1v2h1v-1h-2v-2h-1v-2h-1v-2h-1v-2H8v3H7zm5 0h1v1h-1zm6 8h1v1h-1zm2 1h1v-2h1v-5h1v-1h1v1h1v3h-1v2h-1v1h-3z" />
	<path fill="#888" d="M22 13h1v1h-1zm2 0h1v1h-1zm-4 4h1v1h-1zm4 0h1v1h-1zm-14 1h1v1h-1zm8 0h1v1h-1zm3 0h1v1h-1zm2 1h1v1h-1zm-1 1h1v1h-1zM9 9h1v1H9zm2 0h1v1h-1zm12 3h1v1h-1z" />
	<path fill="#444" d="M24 12h1v1h-1zm-14 1h1v1h-1zm11 3h1v2h-1zm-11 1h1v1h-1zm14 1h1v1h-1zm-4 0h1v1h-1zm3 2h1v1h-1zm-2 1h2v1h-2z" />
</svg>

<?xml version="1.0"	encoding="UTF-8"?>
<svg version="1.1" width="100%" height="100%" viewBox="0 0 30 30" preserveAspectRatio="xMidYMid meet" xmlns="http://www.w3.org/2000/svg" shape-rendering="crispEdges">
	<g>
		<rect x="2" y="2" width="26" height="26" fill="#e0e000"/>
		<path d="M 2 2 L 2 1 L 28 1 L 28 2 Z M 28 2 L 29 2 L 29 27 L 28 27 Z M 28 27 L 27 27 L 27 28 L 28 28 Z M 27 28 L 27 29 L 3 29 L 3 28 Z M 3 28 L 3 27 L 2 27 L 2 28 Z M 2 27 L 1 27 L 1 2 L 2 2 Z"	fill="#e0e0e0"/>

		<g fill="#e08000">
			<path d="M 20 2 V 3 h 2 V 4 h 1 V 3 h 4 V 2 Z"/>
			<path d="M 27 9 h 1 v 1 H 27 Z m -1 7 h 1 v 2 H 26 Z m -1 3 h 1 v 1 H 25 Z m -1 2 h 1 v 2 H 24 Z m -1 3 h 1 v 1 H 23 Z m -1 4 V 26 h 1 v 1 H 21 v 1 Z"/>
		</g>
	</g>

	<path d="M 2 3 H 3 V 2 H 20 V 3 h 2 V 4 h 2 V 3 h 4 V 9 H 27 v 7 H 26 v 3 H 25 v 2 H 24 v 3 H 23 v 2 H 22 v 1 H 21 v 1 H 3 V 27 H 2 Z" fill="#2020a0"/>

	<path d="M 2 17 H 3 v 1 H 4 v 1 H 3 v 2 H 2 Z" fill="#2040c0"/>
	<path d="M 2 7 H 3 V 5 H 4 V 6 H 2 Z M 4 8 H 5 V 7 H 4 Z M 8 3 V 2 H 7 V 3 Z m 2 3 H 9 V 5 h 1 Z M 8 10 H 9 V 8 h 1 V 9 H 8 Z m 4 -1 h 2 v 1 H 13 V 8 H 12 Z m 2 2 h 1 v 1 H 14 Z m 1 2 h 1 v 1 H 15 Z m 1 2 h 1 v 2 h 1 V 16 H 16 Z m 3 2 h 1 V 15 h 1 v 1 H 19 Z m 2 -3 h 1 V 13 H 21 Z m 2 -2 H 22 V 11 h 1 Z M 22 7 h 1 V 9 H 22 V 6 H 20 V 4 H 19 V 5 h 2 V 7 Z M 18 4 H 17 V 3 h 1 Z M 16 3 H 15 V 2 h 1 Z m 8 1 h 1 V 3 H 24 Z m 3 0 h 1 V 3 H 27 Z m 0 5 h 1 V 8 H 27 Z" fill="#2040c0"/>

	<path d="M 5 18 V 17 H 7 V 11 H 8 V 9 H 9 V 8 h 4 V 9 h 1 v 2 h 1 v 2 h 1 v 2 h 1 v 1 h 1 v 1 h 1 V 16 h 1 V 15 h 1 V 13 h 1 V 11 h 1 V 9 H 22 V 7 H 21 V 6 H 20 V 5 H 19 V 4 H 17 V 3 H 15 V 2 H 8 V 4 H 9 V 5 h 1 V 7 H 8 V 8 H 7 V 9 H 5 V 8 H 4 V 18 Z" fill="#4040e0"/>
	
	<path d="M 4 14 V 11 H 6 V 10 H 5 v 2 H 6 v 1 H 5 v 1 Z" fill="#6060e0" />
	<path d="M 13 8 V 9 h 1 v 1 h 1 v 2 h 1 v 2 h 1 v 1 h 1 v 1 h 1 V 12 H 18 V 9 H 17 V 7 H 16 V 6 H 15 V 5 H 12 V 6 H 11 V 7 H 10 V 8 Z" fill="#6060e0" />
	<path d="M7 11h1v1h-1zM7 16h1v1h-1z" fill="#6060e0" />

	<path d="M 5 4 V 7 H 6 V 8 H 8 V 7 H 9 V 6 H 8 V 5 H 7 V 4 Z" fill="#e0a080"/>
	<path d="M 18 21 v 1 h 1 v 1 h 2 v 1 h 1 v 2 H 21 v 1 H 19 v 1 H 9 V 27 H 7 V 26 H 5 V 25 H 4 V 24 H 3 V 19 H 4 V 18 H 5 V 17 H 8 v 1 H 9 v 1 H 8 v 1 H 9 v 1 h 2 v 1 h 5 V 21 Z" fill="#e0a080"/>

	<path d="M 5 7 H 6 V 9 H 7 V 8 H 5 Z m 5 0 V 6 H 8 V 4 H 7 V 5 H 9 V 7 Z" fill="#a06040"/>
	<path d="M 9 21 H 7 v 2 H 9 v 1 H 8 V 20 H 9 Z" fill="#a06040"/>
	<path d="M 5 17 H 7 v 1 H 4 v 1 H 5 Z M 4 20 H 3 v 3 H 4 Z m 0 4 H 5 v 2 H 6 V 25 H 4 Z m 3 2 H 8 v 1 H 7 m 2 0 h 2 v 1 H 9 Z" fill="#a06040"/>
	<path d="M 18 23 h 3 v 1 h 1 v 2 H 21 v 1 H 17 v 1 h 2 V 26 h 1 V 24 H 19 V 22 H 18 Z" fill="#a06040"/>

	<path d="M 6 20 H 8 v 1 H 7 v 1 H 6 Z" fill="#500000"/>
	<path d="M3 19H4v1H3Zm0 4H4v1H3Zm1 2H5v2H9v1H7V26H4Zm15 2h3V24H21V23h2V22h1v2H23v2H21v2H19Z" fill="#500000"/>

	<path d="M 3 28 V 27 H 4 V 26 H 5 v 1 H 7 v 1 Z" fill="#000000"/>

	<rect x="5" y="11" width="1" height="1" fill="#e0e0e0"/>
	<path d="M 9 19 V 18 H 8 V 16 H 7 V 12 H 8 V 10 H 9 V 9 h 3 v 1 h 1 v 1 h 1 v 2 h 1 v 2 h 1 v 2 h 1 v 1 h 3 V 17 h 1 V 15 h 1 V 13 h 1 V 12 h 2 v 7 H 24 v 3 H 21 V 21 H 16 v 1 H 11 V 21 H 9 V 20 H 8 V 19 Z M 5 18 H 8 v 1 H 5 Z M 4 19 H 5 v 1 H 4 Z" fill="#e0e0e0"/>
	<path d="M 10 14 v 3 h 1 v 2 h 1 V 18 h 1 V 13 H 11 V 12 h 1 v 3 H 11 V 14 Z" fill="#000000"/>
	<path d="M 19 23 V 22 H 18 V 21 h 1 V 18 h 1 v 1 h 1 v 1 H 20 v 1 h 1 v 1 h 3 V 21 H 23 v 2 Z m 2 -7 h 1 V 15 H 21 Z" fill="#000000"/>

	<path d="M 2 2 V 3 H 3 V 2 Z M 1 27 H 2 v 2 H 3 V 28 H 1 Z m 26 2 h 1 V 27 h 1 v 1 H 27 Z M 28 2 H 27 V 3 h 1 Z" fill="#a0a0a0"/>
	<rect x="5"		y="3"	width="2"	height="1"	fill="#800000"/>
	<path d="M7 12H8V11H9V10h1V9h1v1h1v1h2v2h1v2h1v2h1v2h1V18H16V16H15V14H14V12H13V10H8v3H7Zm5 0h1v1H12Zm6 8h1v1H18Z" fill="#a0a0a0"/>
	<path d="M20 21h1V19h1V14h1V13h1v1h1v3H24v2H23v1H20Z" fill="#a0a0a0"/>
	<rect x="22"	y="13"	width="1"	height="1"	fill="#808080"/>
	<rect x="24"	y="13"	width="1"	height="1"	fill="#808080"/>
	<rect x="20"	y="17"	width="1"	height="1"	fill="#808080"/>
	<rect x="24"	y="17"	width="1"	height="1"	fill="#808080"/>
	<rect x="10"	y="18"	width="1"	height="1"	fill="#808080"/>
	<rect x="18"	y="18"	width="1"	height="1"	fill="#808080"/>
	<rect x="21"	y="18"	width="1"	height="1"	fill="#808080"/>
	<rect x="23"	y="19"	width="1"	height="1"	fill="#808080"/>
	<rect x="22"	y="20"	width="1"	height="1"	fill="#808080"/>
	<rect x="9"		y="9"	width="1"	height="1"	fill="#808080"/>
	<rect x="11"	y="9"	width="1"	height="1"	fill="#808080"/>
	<rect x="23"	y="12"	width="1"	height="1"	fill="#808080"/>
	<rect x="24"	y="12"	width="1"	height="1"	fill="#404040"/>
	<rect x="10"	y="13"	width="1"	height="1"	fill="#404040"/>
	<rect x="21"	y="16"	width="1"	height="2"	fill="#404040"/>
	<rect x="10"	y="17"	width="1"	height="1"	fill="#404040"/>
	<rect x="24"	y="18"	width="1"	height="1"	fill="#404040"/>
	<rect x="20"	y="18"	width="1"	height="1"	fill="#404040"/>
	<rect x="23"	y="20"	width="1"	height="1"	fill="#404040"/>
	<rect x="21"	y="21"	width="2"	height="1"	fill="#404040"/>
</svg>
